static/img/kroki/51834520ac8e576385c29d4298d56abc.svg

<?xml version="1.0" encoding="us-ascii" standalone="no"?><svg xmlns="http://www.w3.org/2000/svg" xmlns:xlink="http://www.w3.org/1999/xlink" contentStyleType="text/css" height="152px" preserveAspectRatio="none" style="width:1258px;height:152px;" version="1.1" viewBox="0 0 1258 152" width="1258px" zoomAndPan="magnify"><defs/><g><!--class azure_bastion_host--><g id="elem_azure_bastion_host"><rect codeLine="22" fill="#3D176E" height="39.7891" id="azure_bastion_host" rx="2.5" ry="2.5" style="stroke:#000D19;stroke-width:0.5;" width="203" x="7" y="7"/><ellipse cx="22" cy="26.8945" fill="#ADD1B2" rx="11" ry="11" style="stroke:#181818;stroke-width:1.0;"/><path d="M24.9688,32.5352 Q24.3906,32.832 23.75,32.9727 Q23.1094,33.1289 22.4063,33.1289 Q19.9063,33.1289 18.5781,31.4883 Q17.2656,29.832 17.2656,26.707 Q17.2656,23.582 18.5781,21.9258 Q19.9063,20.2695 22.4063,20.2695 Q23.1094,20.2695 23.75,20.4258 Q24.4063,20.582 24.9688,20.8789 L24.9688,23.5977 Q24.3438,23.0195 23.75,22.7539 Q23.1563,22.4727 22.5313,22.4727 Q21.1875,22.4727 20.5,23.5508 Q19.8125,24.6133 19.8125,26.707 Q19.8125,28.8008 20.5,29.8789 Q21.1875,30.9414 22.5313,30.9414 Q23.1563,30.9414 23.75,30.6758 Q24.3438,30.3945 24.9688,29.8164 L24.9688,32.5352 Z " fill="#000000"/><text fill="#D9B8FF" font-family="Helvetica" font-size="17" lengthAdjust="spacing" textLength="161" x="41" y="32.7798">azure_bastion_host</text></g><!--class azure_ddos_protection_plan--><g id="elem_azure_ddos_protection_plan"><rect codeLine="24" fill="#3D176E" height="39.7891" id="azure_ddos_protection_plan" rx="2.5" ry="2.5" style="stroke:#000D19;stroke-width:0.5;" width="274" x="245.5" y="7"/><ellipse cx="260.5" cy="26.8945" fill="#ADD1B2" rx="11" ry="11" style="stroke:#181818;stroke-width:1.0;"/><path d="M263.4688,32.5352 Q262.8906,32.832 262.25,32.9727 Q261.6094,33.1289 260.9063,33.1289 Q258.4063,33.1289 257.0781,31.4883 Q255.7656,29.832 255.7656,26.707 Q255.7656,23.582 257.0781,21.9258 Q258.4063,20.2695 260.9063,20.2695 Q261.6094,20.2695 262.25,20.4258 Q262.9063,20.582 263.4688,20.8789 L263.4688,23.5977 Q262.8438,23.0195 262.25,22.7539 Q261.6563,22.4727 261.0313,22.4727 Q259.6875,22.4727 259,23.5508 Q258.3125,24.6133 258.3125,26.707 Q258.3125,28.8008 259,29.8789 Q259.6875,30.9414 261.0313,30.9414 Q261.6563,30.9414 262.25,30.6758 Q262.8438,30.3945 263.4688,29.8164 L263.4688,32.5352 Z " fill="#000000"/><text fill="#D9B8FF" font-family="Helvetica" font-size="17" lengthAdjust="spacing" textLength="232" x="279.5" y="32.7798">azure_ddos_protection_plan</text></g><!--class azure_nat_gateway--><g id="elem_azure_nat_gateway"><rect codeLine="26" fill="#3D176E" height="39.7891" id="azure_nat_gateway" rx="2.5" ry="2.5" style="stroke:#000D19;stroke-width:0.5;" width="206" x="554.5" y="7"/><ellipse cx="569.5" cy="26.8945" fill="#ADD1B2" rx="11" ry="11" style="stroke:#181818;stroke-width:1.0;"/><path d="M572.4688,32.5352 Q571.8906,32.832 571.25,32.9727 Q570.6094,33.1289 569.9063,33.1289 Q567.4063,33.1289 566.0781,31.4883 Q564.7656,29.832 564.7656,26.707 Q564.7656,23.582 566.0781,21.9258 Q567.4063,20.2695 569.9063,20.2695 Q570.6094,20.2695 571.25,20.4258 Q571.9063,20.582 572.4688,20.8789 L572.4688,23.5977 Q571.8438,23.0195 571.25,22.7539 Q570.6563,22.4727 570.0313,22.4727 Q568.6875,22.4727 568,23.5508 Q567.3125,24.6133 567.3125,26.707 Q567.3125,28.8008 568,29.8789 Q568.6875,30.9414 570.0313,30.9414 Q570.6563,30.9414 571.25,30.6758 Q571.8438,30.3945 572.4688,29.8164 L572.4688,32.5352 Z " fill="#000000"/><text fill="#D9B8FF" font-family="Helvetica" font-size="17" lengthAdjust="spacing" textLength="164" x="588.5" y="32.7798">azure_nat_gateway</text></g><!--class azure_public_ip_address--><g id="elem_azure_public_ip_address"><rect codeLine="28" fill="#3D176E" height="39.7891" id="azure_public_ip_address" rx="2.5" ry="2.5" style="stroke:#000D19;stroke-width:0.5;" width="242" x="536.5" y="106.79"/><ellipse cx="551.5" cy="126.6845" fill="#ADD1B2" rx="11" ry="11" style="stroke:#181818;stroke-width:1.0;"/><path d="M554.4688,132.3252 Q553.8906,132.622 553.25,132.7627 Q552.6094,132.9189 551.9063,132.9189 Q549.4063,132.9189 548.0781,131.2783 Q546.7656,129.622 546.7656,126.497 Q546.7656,123.372 548.0781,121.7158 Q549.4063,120.0595 551.9063,120.0595 Q552.6094,120.0595 553.25,120.2158 Q553.9063,120.372 554.4688,120.6689 L554.4688,123.3877 Q553.8438,122.8095 553.25,122.5439 Q552.6563,122.2627 552.0313,122.2627 Q550.6875,122.2627 550,123.3408 Q549.3125,124.4033 549.3125,126.497 Q549.3125,128.5908 550,129.6689 Q550.6875,130.7314 552.0313,130.7314 Q552.6563,130.7314 553.25,130.4658 Q553.8438,130.1845 554.4688,129.6064 L554.4688,132.3252 Z " fill="#000000"/><text fill="#D9B8FF" font-family="Helvetica" font-size="17" lengthAdjust="spacing" textLength="200" x="570.5" y="132.5698">azure_public_ip_address</text></g><!--class azure_public_ip_prefix--><g id="elem_azure_public_ip_prefix"><rect codeLine="30" fill="#3D176E" height="39.7891" id="azure_public_ip_prefix" rx="2.5" ry="2.5" style="stroke:#000D19;stroke-width:0.5;" width="227" x="796" y="7"/><ellipse cx="811" cy="26.8945" fill="#ADD1B2" rx="11" ry="11" style="stroke:#181818;stroke-width:1.0;"/><path d="M813.9688,32.5352 Q813.3906,32.832 812.75,32.9727 Q812.1094,33.1289 811.4063,33.1289 Q808.9063,33.1289 807.5781,31.4883 Q806.2656,29.832 806.2656,26.707 Q806.2656,23.582 807.5781,21.9258 Q808.9063,20.2695 811.4063,20.2695 Q812.1094,20.2695 812.75,20.4258 Q813.4063,20.582 813.9688,20.8789 L813.9688,23.5977 Q813.3438,23.0195 812.75,22.7539 Q812.1563,22.4727 811.5313,22.4727 Q810.1875,22.4727 809.5,23.5508 Q808.8125,24.6133 808.8125,26.707 Q808.8125,28.8008 809.5,29.8789 Q810.1875,30.9414 811.5313,30.9414 Q812.1563,30.9414 812.75,30.6758 Q813.3438,30.3945 813.9688,29.8164 L813.9688,32.5352 Z " fill="#000000"/><text fill="#D9B8FF" font-family="Helvetica" font-size="17" lengthAdjust="spacing" textLength="185" x="830" y="32.7798">azure_public_ip_prefix</text></g><!--class azure_virtual_hub--><g id="elem_azure_virtual_hub"><rect codeLine="32" fill="#3D176E" height="39.7891" id="azure_virtual_hub" rx="2.5" ry="2.5" style="stroke:#000D19;stroke-width:0.5;" width="193" x="1058" y="7"/><ellipse cx="1073" cy="26.8945" fill="#ADD1B2" rx="11" ry="11" style="stroke:#181818;stroke-width:1.0;"/><path d="M1075.9688,32.5352 Q1075.3906,32.832 1074.75,32.9727 Q1074.1094,33.1289 1073.4063,33.1289 Q1070.9063,33.1289 1069.5781,31.4883 Q1068.2656,29.832 1068.2656,26.707 Q1068.2656,23.582 1069.5781,21.9258 Q1070.9063,20.2695 1073.4063,20.2695 Q1074.1094,20.2695 1074.75,20.4258 Q1075.4063,20.582 1075.9688,20.8789 L1075.9688,23.5977 Q1075.3438,23.0195 1074.75,22.7539 Q1074.1563,22.4727 1073.5313,22.4727 Q1072.1875,22.4727 1071.5,23.5508 Q1070.8125,24.6133 1070.8125,26.707 Q1070.8125,28.8008 1071.5,29.8789 Q1072.1875,30.9414 1073.5313,30.9414 Q1074.1563,30.9414 1074.75,30.6758 Q1075.3438,30.3945 1075.9688,29.8164 L1075.9688,32.5352 Z " fill="#000000"/><text fill="#D9B8FF" font-family="Helvetica" font-size="17" lengthAdjust="spacing" textLength="151" x="1092" y="32.7798">azure_virtual_hub</text></g><!--link azure_bastion_host to azure_public_ip_address--><g id="link_azure_bastion_host_azure_public_ip_address"><path codeLine="34" d="M210.48,46.06 C306.76,63.21 444.763,87.7877 543.113,105.3077 " fill="none" id="azure_bastion_host-to-azure_public_ip_address" style="stroke:#1A83AF;stroke-width:2.0;"/><polygon fill="#1A83AF" points="549.02,106.36,540.861,100.8436,544.0975,105.4831,539.458,108.7196,549.02,106.36" style="stroke:#1A83AF;stroke-width:2.0;"/></g><!--link azure_ddos_protection_plan to azure_public_ip_address--><g id="link_azure_ddos_protection_plan_azure_public_ip_address"><path codeLine="35" d="M436.83,47.22 C485.04,64.36 549.4471,87.259 597.6271,104.399 " fill="none" id="azure_ddos_protection_plan-to-azure_public_ip_address" style="stroke:#1A83AF;stroke-width:2.0;"/><polygon fill="#1A83AF" points="603.28,106.41,596.1413,99.6248,598.5692,104.7341,593.4599,107.1621,603.28,106.41" style="stroke:#1A83AF;stroke-width:2.0;"/></g><!--link azure_nat_gateway to azure_public_ip_address--><g id="link_azure_nat_gateway_azure_public_ip_address"><path codeLine="36" d="M657.5,47.22 C657.5,64.36 657.5,83.27 657.5,100.41 " fill="none" id="azure_nat_gateway-to-azure_public_ip_address" style="stroke:#1A83AF;stroke-width:2.0;"/><polygon fill="#1A83AF" points="657.5,106.41,661.5,97.41,657.5,101.41,653.5,97.41,657.5,106.41" style="stroke:#1A83AF;stroke-width:2.0;"/></g><!--link azure_public_ip_prefix to azure_public_ip_address--><g id="link_azure_public_ip_prefix_azure_public_ip_address"><path codeLine="37" d="M859.71,47.22 C815.53,64.36 756.9233,87.0986 712.7733,104.2386 " fill="none" id="azure_public_ip_prefix-to-azure_public_ip_address" style="stroke:#1A83AF;stroke-width:2.0;"/><polygon fill="#1A83AF" points="707.18,106.41,717.0176,106.8817,711.8411,104.6005,714.1223,99.424,707.18,106.41" style="stroke:#1A83AF;stroke-width:2.0;"/></g><!--link azure_virtual_hub to azure_public_ip_address--><g id="link_azure_virtual_hub_azure_public_ip_address"><path codeLine="38" d="M1057.79,46.93 C970.67,64.07 849.0972,87.9922 761.5372,105.2122 " fill="none" id="azure_virtual_hub-to-azure_public_ip_address" style="stroke:#1A83AF;stroke-width:2.0;"/><polygon fill="#1A83AF" points="755.65,106.37,765.2527,108.5581,760.556,105.4052,763.709,100.7085,755.65,106.37" style="stroke:#1A83AF;stroke-width:2.0;"/></g><!--SRC=[bP91Jm8n48Nl_8ecd4bOYG8NavM4w8KOyMRCPdOxPHjsssRQ1S7utsL1JTco8DU-xysyDsakEJ8iZTkm4iiKoNRiKYe312MBYVHweWjDh2i4YC6mAKwrSXU16PJ87h5OePCPD8dNN6PBXTQo6qzwW6ov85qfVXZl29JTIQYSHqqAi3PsZcHQEVJ2y74w4g99DeTs1pmQtc60QU98FqY_t-VHk8bSN7MsznynbrjaaN-qcNOOn0nMxAcpAMl22naK_TLRCpu3vr8jsAttzdB8H0hfw7sU0zVhcXPGM7-DTKYetSRW96Y5un4NmvFmKnkSrPTZiAq8anIiarebkRQEVNQ-ZaJEjKqCxLfcUyWKe098WKiMu70Dcq0pLLh8B94csHs2wk_PJXX28Jy2O2N9LL0aUPNkjHEnUs_TA1uDukbxxxvjSUTCeolyVjahR47BAxp-0VvZ-mO0]--></g></svg>

<svg xmlns="http://www.w3.org/2000/svg" width="1258" height="152" viewBox="0 0 1258 152"><rect width="203" height="39.789" x="7" y="7" fill="#3D176E" rx="2.5" ry="2.5" style="stroke:#000d19;stroke-width:.5"/><circle cx="22" cy="26.895" r="11" fill="#ADD1B2" style="stroke:#181818;stroke-width:1"/><path d="M24.969 32.535q-.578.297-1.219.438-.64.156-1.344.156-2.5 0-3.828-1.64-1.312-1.657-1.312-4.782t1.312-4.781q1.328-1.656 3.828-1.656.703 0 1.344.156.656.156 1.219.453v2.719q-.625-.578-1.219-.844-.594-.281-1.219-.281-1.343 0-2.031 1.078-.687 1.062-.687 3.156t.687 3.172q.688 1.062 2.031 1.062.625 0 1.219-.265.594-.281 1.219-.86z"/><text x="41" y="32.78" fill="#D9B8FF" font-family="Helvetica" font-size="17" textLength="161">azure_bastion_host</text><rect width="274" height="39.789" x="245.5" y="7" fill="#3D176E" rx="2.5" ry="2.5" style="stroke:#000d19;stroke-width:.5"/><circle cx="260.5" cy="26.895" r="11" fill="#ADD1B2" style="stroke:#181818;stroke-width:1"/><path d="M263.469 32.535q-.578.297-1.219.438-.64.156-1.344.156-2.5 0-3.828-1.64-1.312-1.657-1.312-4.782t1.312-4.781q1.328-1.656 3.828-1.656.703 0 1.344.156.656.156 1.219.453v2.719q-.625-.578-1.219-.844-.594-.281-1.219-.281-1.344 0-2.031 1.078-.687 1.062-.687 3.156t.687 3.172q.688 1.062 2.031 1.062.625 0 1.219-.265.594-.281 1.219-.86z"/><text x="279.5" y="32.78" fill="#D9B8FF" font-family="Helvetica" font-size="17" textLength="232">azure_ddos_protection_plan</text><rect width="206" height="39.789" x="554.5" y="7" fill="#3D176E" rx="2.5" ry="2.5" style="stroke:#000d19;stroke-width:.5"/><circle cx="569.5" cy="26.895" r="11" fill="#ADD1B2" style="stroke:#181818;stroke-width:1"/><path d="M572.469 32.535q-.578.297-1.219.438-.64.156-1.344.156-2.5 0-3.828-1.64-1.312-1.657-1.312-4.782t1.312-4.781q1.328-1.656 3.828-1.656.703 0 1.344.156.656.156 1.219.453v2.719q-.625-.578-1.219-.844-.594-.281-1.219-.281-1.343 0-2.031 1.078-.687 1.062-.687 3.156t.687 3.172q.688 1.062 2.031 1.062.625 0 1.219-.265.594-.281 1.219-.86z"/><text x="588.5" y="32.78" fill="#D9B8FF" font-family="Helvetica" font-size="17" textLength="164">azure_nat_gateway</text><rect width="242" height="39.789" x="536.5" y="106.79" fill="#3D176E" rx="2.5" ry="2.5" style="stroke:#000d19;stroke-width:.5"/><circle cx="551.5" cy="126.684" r="11" fill="#ADD1B2" style="stroke:#181818;stroke-width:1"/><path d="M554.469 132.325q-.578.297-1.219.438-.64.156-1.344.156-2.5 0-3.828-1.64-1.312-1.657-1.312-4.782t1.312-4.781q1.328-1.656 3.828-1.656.703 0 1.344.156.656.156 1.219.453v2.719q-.625-.579-1.219-.844-.594-.281-1.219-.281-1.343 0-2.031 1.078-.687 1.062-.687 3.156t.687 3.172q.688 1.062 2.031 1.062.625 0 1.219-.265.594-.281 1.219-.86z"/><text x="570.5" y="132.57" fill="#D9B8FF" font-family="Helvetica" font-size="17" textLength="200">azure_public_ip_address</text><rect width="227" height="39.789" x="796" y="7" fill="#3D176E" rx="2.5" ry="2.5" style="stroke:#000d19;stroke-width:.5"/><circle cx="811" cy="26.895" r="11" fill="#ADD1B2" style="stroke:#181818;stroke-width:1"/><path d="M813.969 32.535q-.578.297-1.219.438-.64.156-1.344.156-2.5 0-3.828-1.64-1.312-1.657-1.312-4.782t1.312-4.781q1.328-1.656 3.828-1.656.703 0 1.344.156.656.156 1.219.453v2.719q-.625-.578-1.219-.844-.594-.281-1.219-.281-1.343 0-2.031 1.078-.687 1.062-.687 3.156t.687 3.172q.688 1.062 2.031 1.062.625 0 1.219-.265.594-.281 1.219-.86z"/><text x="830" y="32.78" fill="#D9B8FF" font-family="Helvetica" font-size="17" textLength="185">azure_public_ip_prefix</text><rect width="193" height="39.789" x="1058" y="7" fill="#3D176E" rx="2.5" ry="2.5" style="stroke:#000d19;stroke-width:.5"/><circle cx="1073" cy="26.895" r="11" fill="#ADD1B2" style="stroke:#181818;stroke-width:1"/><path d="M1075.969 32.535q-.578.297-1.219.438-.64.156-1.344.156-2.5 0-3.828-1.64-1.312-1.657-1.312-4.782t1.312-4.781q1.328-1.656 3.828-1.656.703 0 1.344.156.656.156 1.219.453v2.719q-.625-.578-1.219-.844-.594-.281-1.219-.281-1.343 0-2.031 1.078-.687 1.062-.687 3.156t.687 3.172q.688 1.062 2.031 1.062.625 0 1.219-.265.594-.281 1.219-.86z"/><text x="1092" y="32.78" fill="#D9B8FF" font-family="Helvetica" font-size="17" textLength="151">azure_virtual_hub</text><path fill="none" d="M210.48 46.06c96.28 17.15 234.283 41.728 332.633 59.248" style="stroke:#1a83af;stroke-width:2"/><path fill="#1A83AF" d="m549.02 106.36-8.159-5.516 3.236 4.64-4.639 3.236z" style="stroke:#1a83af;stroke-width:2"/><path fill="none" d="M436.83 47.22c48.21 17.14 112.617 40.039 160.797 57.179" style="stroke:#1a83af;stroke-width:2"/><path fill="#1A83AF" d="m603.28 106.41-7.139-6.785 2.428 5.11-5.11 2.427z" style="stroke:#1a83af;stroke-width:2"/><path fill="none" d="M657.5 47.22v53.19" style="stroke:#1a83af;stroke-width:2"/><path fill="#1A83AF" d="m657.5 106.41 4-9-4 4-4-4z" style="stroke:#1a83af;stroke-width:2"/><path fill="none" d="M859.71 47.22c-44.18 17.14-102.787 39.879-146.937 57.019" style="stroke:#1a83af;stroke-width:2"/><path fill="#1A83AF" d="m707.18 106.41 9.838.472-5.177-2.282 2.281-5.176z" style="stroke:#1a83af;stroke-width:2"/><path fill="none" d="M1057.79 46.93c-87.12 17.14-208.693 41.062-296.253 58.282" style="stroke:#1a83af;stroke-width:2"/><path fill="#1A83AF" d="m755.65 106.37 9.603 2.188-4.697-3.153 3.153-4.696z" style="stroke:#1a83af;stroke-width:2"/></svg>
